X:803
T:Pretty Peg
R:Reel
D:Altan
Z:Adrian Scahill
M:4/4
L:1/8
K:D
(3ABc|d2fd ADFA|defd (3efg fe|defd AFDF|(3GFE (3FED CEEA:||\ (3FED AD BDAD|(3FED
AD CEEG|(3FED AD BDAD|FDAD A,DDG|\ (3FED dD cDBD|ADFD CEEG|FAdf ecdB|AFEF D4:||

